shader_type canvas_item;

void vertex() {
	// Called for every vertex the material is visible on.
	VERTEX.x += cos(TIME);
}

void fragment() {
	COLOR = COLOR * vec4(UV, 0.5, 1.0);
}
//void light() {
//	// Called for every pixel for every light affecting the CanvasItem.
//	// Uncomment to replace the default light processing function with this one.
//}
